public/unlock.svg

<svg width="26" height="28" fill="#52caf5" xmlns="http://www.w3.org/2000/svg">
    <path fill-rule="evenodd" clip-rule="evenodd" d="M8 11.5h13.75c2.125 0 3.75 1.625 3.75 3.75V24c0 2.125-1.625 3.75-3.75 3.75H4.25C2.125 27.75.5 26.125.5 24v-8.75c0-2.125 1.625-3.75 3.75-3.75H5.5V7.75c0-2 .75-3.875 2.25-5.25C9.125 1 11 .25 13 .25c3.5 0 6.625 2.5 7.375 6a1.297 1.297 0 01-1 1.5c-.625.125-1.375-.375-1.5-1-.5-2.375-2.5-4-4.875-4-1.375 0-2.625.5-3.5 1.5-1 .875-1.5 2.125-1.5 3.5v3.75zm13.75 13.75c.75 0 1.25-.5 1.25-1.25v-8.75c0-.75-.5-1.25-1.25-1.25H4.25C3.5 14 3 14.5 3 15.25V24c0 .75.5 1.25 1.25 1.25h17.5z" fill="#231F1F"/>
</svg>

<svg width="26" height="28" viewBox="0 0 26 28" fill="#52caf5" xmlns="http://www.w3.org/2000/svg">
<path fill-rule="evenodd" clip-rule="evenodd" d="M8 11.5H21.75C23.875 11.5 25.5 13.125 25.5 15.25V24C25.5 26.125 23.875 27.75 21.75 27.75H4.25C2.125 27.75 0.5 26.125 0.5 24V15.25C0.5 13.125 2.125 11.5 4.25 11.5H5.5V7.75C5.5 5.75 6.25 3.875 7.75 2.5C9.125 1 11 0.25 13 0.25C16.5 0.25 19.625 2.75 20.375 6.25C20.5 7 20 7.625 19.375 7.75C18.75 7.875 18 7.375 17.875 6.75C17.375 4.375 15.375 2.75 13 2.75C11.625 2.75 10.375 3.25 9.5 4.25C8.5 5.125 8 6.375 8 7.75V11.5ZM21.75 25.25C22.5 25.25 23 24.75 23 24V15.25C23 14.5 22.5 14 21.75 14H4.24999C3.49999 14 2.99999 14.5 2.99999 15.25V24C2.99999 24.75 3.49999 25.25 4.24999 25.25H21.75Z" fill="#231F1F"/>
</svg>
